brandFactory_export/2.Regular/Mail correo_2Regular.svg

<?xml version="1.0" encoding="UTF-8"?>
<svg width="24px" height="24px" viewBox="0 0 24 24" version="1.1" xmlns="http://www.w3.org/2000/svg" xmlns:xlink="http://www.w3.org/1999/xlink">
    <title>2.Regular/Mail correo_2Regular</title>
    <g id="Symbols" stroke="none" stroke-width="1" fill="none" fill-rule="evenodd">
        <g id="2.Regular/Mail-correo_2Regular" fill="#5CB615" fill-rule="nonzero">
            <path d="M22.0134454,19.0084034 C21.8285714,19.2268908 21.4487395,19.2773109 21.1663866,19.2840336 C19.3512605,19.3142857 2.25210084,19.2806723 2.06386555,19.2840336 C1.92941176,19.2672269 1.80504202,19.210084 1.70756303,19.1193277 C1.49243697,18.9109244 1.4487395,18.5243697 1.4487395,18.2386555 L1.4487395,7.78487395 L9.64705882,12.9378151 C9.69747899,12.9747899 10.5142857,13.5529412 11.6403361,13.5529412 C12.205042,13.5529412 12.8504202,13.405042 13.5159664,12.9714286 L22.1747899,7.75462185 L22.1613445,18.2386555 L22.1714286,18.3529412 C22.1680672,18.3563025 22.2252101,18.7630252 22.0134454,19.0084034 M2.07731092,5.43529412 L21.5932773,5.43865546 C21.610084,5.43865546 22.0033613,5.45210084 22.1344538,6.10084034 L12.7428571,11.7613445 C11.5831933,12.5176471 10.5411765,11.8084034 10.4638655,11.7512605 L1.47563025,6.10084034 C1.50588235,5.90588235 1.5697479,5.6907563 1.6907563,5.56302521 C1.7512605,5.50588235 1.8487395,5.43529412 2.07731092,5.43529412 M23.6067227,18.1915966 L23.6235294,6.4605042 C23.5697479,4.40672269 22.1546218,3.9697479 21.5764706,4.00336134 L2.08067227,4 C1.50252101,4 1.00168067,4.20168067 0.638655462,4.58487395 C-0.0470588235,5.30420168 -3.27862737e-16,6.39663866 0.00672268908,6.47731092 L0.00672268908,18.2352941 C0.00672268908,19.0521008 0.238655462,19.6941176 0.699159664,20.1411765 C1.28739496,20.712605 2.02352941,20.7327731 2.08067227,20.7159664 C2.54453782,20.7159664 9.90252101,20.7327731 15.3915966,20.7327731 C18.2319328,20.7327731 20.5714286,20.7294118 21.1932773,20.7159664 C22.2621849,20.6991597 22.8403361,20.2689076 23.1361345,19.9159664 C23.6806723,19.2571429 23.6403361,18.4504202 23.6067227,18.1915966" id="Mail-correo_2Regular"></path>
        </g>
    </g>
</svg>

<svg width="24" height="24" viewBox="0 0 24 24" xmlns="http://www.w3.org/2000/svg"><path d="M22.013 19.008c-.184.219-.564.27-.847.276-1.815.03-18.914-.003-19.102 0a.637.637 0 01-.356-.165c-.216-.208-.26-.595-.26-.88V7.785l8.2 5.153c.05.037.866.615 1.992.615.565 0 1.21-.148 1.876-.582l8.659-5.216-.014 10.484.01.114c-.003.003.054.41-.158.655M2.077 5.435l19.516.004c.017 0 .41.013.541.662l-9.391 5.66c-1.16.757-2.202.047-2.28-.01l-8.987-5.65c.03-.195.094-.41.215-.538.06-.057.158-.128.386-.128m21.53 12.757l.017-11.731c-.054-2.054-1.47-2.491-2.048-2.458L2.081 4C1.503 4 1 4.202.639 4.585-.047 5.305 0 6.397.007 6.477v11.758c0 .817.232 1.46.692 1.906.588.572 1.325.592 1.382.575.464 0 7.822.017 13.31.017 2.84 0 5.18-.004 5.802-.017 1.07-.017 1.647-.447 1.943-.8.545-.659.504-1.466.47-1.724" fill="#5CB615" fill-rule="nonzero"/></svg>
